X:1
T:Title
%%score { 1 | ( 2 3 ) }
L:1/8
Q:1/4=132
M:6/4
K:Eb
V:1 treble nm="Grand Piano"
V:2 bass 
V:3 bass 
V:1
 [GB]2 [G=A]2 [GB]2 [_Ac]4 [GB]2 | [DFA]6 .[A,DF]6 | [DA]2 [DG]2 [DA]2 [Dd]4 [Dc]2 | [EB]6 .[EG]6 | %4
w: H.~Green * * * *||||
 [GB]2 [G=A]2 [GB]2 [Be]4 d2 | d6 .c6 | [CEF]2 [CEG]2 [CEc]2 .[DB]6 | [A,DF]2 [G,B,E]4- [G,B,E]6 |] %8
w: ||||
V:2
 [E,E]2 [E,E]2 [E,E]2 [E,E]4 [E,E]2 | B,,6 .B,,6 | [B,,B,]2 [B,,B,]2 [B,,B,]2 [B,,B,]4 [B,,A,]2 | %3
 [E,G,]6 .[E,B,]6 | [E,E]2 [E,E]2 [E,E]2[K:treble] [G,E]4 [G,=B,G]2 | [G,=B,F]6[K:bass] .[A,CE]6 | %6
 A,,2 A,,2 A,2 z2 A4 | B,,2 E,4- E,6 |] %8
V:3
 x12 | x12 | x12 | x12 | x6[K:treble] x6 | x6[K:bass] x6 | z6 [B,,A,]6 | x12 |] %8

